static/assets/img/icons/theme/tools/roulette.svg

<svg height="24" viewBox="0 0 24 24" width="24" xmlns="http://www.w3.org/2000/svg"><g fill="none" fill-rule="evenodd"><path d="m0 0h24v24h-24z" opacity="0"/><g fill="#000"><path d="m22 8c0 .55228475-.4477153 1-1 1h-2v6c0 3.3137085-2.6862915 6-6 6h-8c-1.1045695 0-2-.8954305-2-2v-8c0-3.3137085 2.6862915-6 6-6h8c1.1045695 0 2 .8954305 2 2h2v-1h1zm-11 9c2.209139 0 4-1.790861 4-4s-1.790861-4-4-4-4 1.790861-4 4 1.790861 4 4 4z"/><path d="m12 3h3c.5522847 0 1 .44771525 1 1v1h-5v-1c0-.55228475.4477153-1 1-1z" opacity=".3"/></g></g></svg>

<svg width="24px" height="24px" viewBox="0 0 24 24" version="1.1" xmlns="http://www.w3.org/2000/svg" xmlns:xlink="http://www.w3.org/1999/xlink">
    <title>Icon For Roulette</title>
    <g stroke="none" stroke-width="1" fill="none" fill-rule="evenodd">
        <rect opacity="0" x="0" y="0" width="24" height="24"></rect>
        <path d="M22,8 C22,8.55228475 21.5522847,9 21,9 L19,9 L19,15 C19,18.3137085 16.3137085,21 13,21 L5,21 C3.8954305,21 3,20.1045695 3,19 L3,11 C3,7.6862915 5.6862915,5 9,5 L17,5 C18.1045695,5 19,5.8954305 19,7 L21,7 L21,6 L22,6 L22,8 Z M11,17 C13.209139,17 15,15.209139 15,13 C15,10.790861 13.209139,9 11,9 C8.790861,9 7,10.790861 7,13 C7,15.209139 8.790861,17 11,17 Z" fill="#000000"></path>
        <path d="M12,3 L15,3 C15.5522847,3 16,3.44771525 16,4 L16,5 L11,5 L11,4 C11,3.44771525 11.4477153,3 12,3 Z" fill="#000000" opacity="0.3"></path>
    </g>
</svg>
